Assets/Logos/Verizon.svg

<svg width="109" height="24" viewBox="0 0 109 24" fill="none" xmlns="http://www.w3.org/2000/svg">
<g clip-path="url(#clip0_6:116)">
<path d="M106.616 0L100.715 12.6247L98.4959 7.8411H96.0959L99.7452 15.6658H101.685L109 0H106.616Z" fill="#ADADAD"/>
<path d="M81.3014 23.4411H86.0521V14.7452C86.0521 12.7562 87.2028 11.3589 88.9123 11.3589C90.5562 11.3589 91.411 12.5096 91.411 14.1699V23.4411H96.1617V13.2658C96.1617 9.8137 94.0904 7.38083 90.737 7.38083C88.6 7.38083 87.1041 8.30137 85.9863 9.97809H85.8877V7.8411H81.2849L81.3014 23.4411ZM71.9644 7.4137C67 7.4137 63.6795 10.9808 63.6795 15.6822C63.6795 20.3507 67 23.9507 71.9644 23.9507C76.9288 23.9507 80.2493 20.3507 80.2493 15.6822C80.2658 10.9808 76.9288 7.4137 71.9644 7.4137ZM71.9315 20.4329C69.6795 20.4329 68.4795 18.5425 68.4795 15.6822C68.4795 12.789 69.663 10.9315 71.9315 10.9315C74.1836 10.9315 75.4329 12.789 75.4329 15.6822C75.4493 18.5425 74.2 20.4329 71.9315 20.4329ZM50.1343 23.4411H63.4822V19.6932H55.9206V19.5945L63.1534 11.4904V7.82466H50.1343V11.589H57.4493V11.6877L50.1343 19.8575V23.4411ZM44.0356 23.4411H48.8192V7.8411H44.0356V23.4411ZM32.9397 23.4411H37.7069V16.274C37.7069 13.0192 39.663 11.5726 42.6384 11.9836H42.737V7.87398C42.4904 7.77535 42.211 7.75891 41.7671 7.75891C39.9096 7.75891 38.6603 8.6137 37.5918 10.4384H37.4932V7.8411H32.9397V23.4411ZM24.1945 20.4493C22.0904 20.4493 20.8082 19.0849 20.5617 16.9808H31.8055C31.8384 13.6274 30.9507 10.9479 29.0932 9.27124C27.7781 8.0548 26.0521 7.38083 23.8493 7.38083C19.148 7.38083 15.8932 10.9479 15.8932 15.6164C15.8932 20.3178 19 23.9014 24.1617 23.9014C26.1178 23.9014 27.663 23.3753 28.9452 22.5041C30.3096 21.5671 31.2959 20.1863 31.5589 18.8219H26.989C26.5452 19.8411 25.5918 20.4493 24.1945 20.4493ZM23.948 10.7836C25.6247 10.7836 26.7754 12.0329 26.9726 13.8575H20.5945C20.9726 12.0164 21.9754 10.7836 23.948 10.7836ZM6.39179 23.4411H11.3891L16.8137 7.8411H12.0301L8.98905 17.8685H8.9233L5.8822 7.8411H0.967133L6.39179 23.4411ZM44.0356 2.28493H48.8192V6.52603H44.0356V2.28493Z" fill="#ADADAD"/>
</g>
<defs>
<clipPath id="clip0_6:116">
<rect width="108.197" height="24" fill="white" transform="translate(0.802734)"/>
</clipPath>
</defs>
</svg>

<svg width="109" height="24" fill="none" xmlns="http://www.w3.org/2000/svg"><g clip-path="url(#clip0_6:116)" fill="#ADADAD"><path d="M106.616 0l-5.901 12.625-2.22-4.784h-2.4l3.65 7.825h1.94L109 0h-2.384zM81.301 23.441h4.751v-8.696c0-1.989 1.15-3.386 2.86-3.386 1.644 0 2.499 1.15 2.499 2.81v9.272h4.75V13.266c0-3.452-2.07-5.885-5.424-5.885-2.137 0-3.633.92-4.75 2.597h-.1V7.841h-4.602l.016 15.6zM71.964 7.414c-4.964 0-8.285 3.567-8.285 8.268 0 4.669 3.321 8.269 8.285 8.269 4.965 0 8.285-3.6 8.285-8.269.017-4.701-3.32-8.268-8.285-8.268zm-.032 13.019c-2.252 0-3.453-1.89-3.453-4.75 0-2.894 1.184-4.752 3.453-4.752 2.252 0 3.5 1.858 3.5 4.751.017 2.86-1.232 4.75-3.5 4.75zM50.133 23.44h13.348v-3.748h-7.561v-.099l7.232-8.104V7.825H50.134v3.764h7.315v.099l-7.315 8.17v3.583zm-6.098 0h4.783v-15.6h-4.783v15.6zm-11.096 0h4.767v-7.167c0-3.255 1.956-4.701 4.931-4.29h.099v-4.11c-.247-.099-.526-.115-.97-.115-1.857 0-3.107.855-4.175 2.68h-.099V7.84H32.94v15.6zm-8.745-2.992c-2.105 0-3.387-1.364-3.633-3.468h11.243c.033-3.354-.854-6.033-2.712-7.71-1.315-1.216-3.04-1.89-5.244-1.89-4.701 0-7.956 3.567-7.956 8.235 0 4.702 3.107 8.285 8.269 8.285 1.956 0 3.501-.526 4.783-1.397 1.365-.937 2.35-2.318 2.614-3.682h-4.57c-.444 1.02-1.397 1.627-2.794 1.627zm-.247-9.665c1.677 0 2.827 1.249 3.025 3.073h-6.378c.378-1.84 1.38-3.073 3.353-3.073zM6.392 23.44h4.997l5.425-15.6H12.03L8.99 17.868h-.067L5.883 7.842H.966l5.425 15.6zM44.036 2.285h4.783v4.241h-4.783V2.285z"/></g><defs><clipPath id="clip0_6:116"><path fill="#fff" transform="translate(.803)" d="M0 0h108.197v24H0z"/></clipPath></defs></svg>
